X: 67
T:Rock the Cradle Lucy
R: Reel
M:2/4
L:1/8
S:https://tunearch.org/wiki/Rock_the_Cradle_Lucy_(1)
K:D
e/g/|f/e/f/g/ ed| ce- e>c|e/>f/e/c/ Bc|[df]>[df] [df]e/g/|
f/e/f/g/ ed|ce-ef/g/|a/b/a/f/ ec|1[df]>[df] [df]:|2 [df]>[df] fD/E/||
|:F/E/F ED|CE- E>D|E/>F/E/D/ B,C|D>D DD/E/|
F/E/F ED|CE2A|A/B/A/F/ EC|1 D>D DD/E/:|2 D>D D||

